src/images_karasa_jaga_svg/cmd/lc_aligntop.svg

<svg height="24" viewBox="0 0 6.3499999 6.3500002" width="24" xmlns="http://www.w3.org/2000/svg" xmlns:xlink="http://www.w3.org/1999/xlink"><filter id="a"><feGaussianBlur stdDeviation="2.0786429"/></filter><radialGradient id="b" cx="27.708702" cy="301.6181" gradientTransform="matrix(3.5555559 .00000018 -.00000015 3.0000008 -70.811094 -866.36975)" gradientUnits="userSpaceOnUse" r="13.85435"><stop offset="0" stop-color="#b7b8b9"/><stop offset=".18851049" stop-color="#ececec"/><stop offset=".25718147" stop-color="#fafafa"/><stop offset=".30111277" stop-color="#fff"/><stop offset=".5313" stop-color="#fafafa"/><stop offset=".8449" stop-color="#ebecec"/><stop offset="1" stop-color="#e1e2e3"/></radialGradient><radialGradient id="c" cx="26.169329" cy="287.06024" gradientTransform="matrix(1.5965953 -.00000097 .00000181 2.9936209 -15.61302 -568.507)" gradientUnits="userSpaceOnUse" r="7.713275"><stop offset="0" stop-color="#9abcee"/><stop offset="1" stop-color="#092042"/></radialGradient><radialGradient id="d" cx="26.191305" cy="282.65869" gradientTransform="matrix(1 0 0 1.859301 0 -242.8889)" gradientUnits="userSpaceOnUse" r="7.713275"><stop offset="0" stop-color="#000914"/><stop offset="1" stop-color="#000b14" stop-opacity="0"/></radialGradient><radialGradient id="e" cx="26.191305" cy="282.65869" gradientTransform="matrix(1 0 0 1.859301 0 -242.8889)" gradientUnits="userSpaceOnUse" r="7.713275"><stop offset="0" stop-color="#001331"/><stop offset="1" stop-color="#293e63"/></radialGradient><radialGradient id="f" cx="26.169329" cy="277.12506" gradientTransform="matrix(1 0 0 1.859301 0 -242.8889)" gradientUnits="userSpaceOnUse" r="7.713275"><stop offset="0" stop-color="#fff"/><stop offset="1" stop-color="#fff" stop-opacity="0"/></radialGradient><linearGradient id="g" gradientUnits="userSpaceOnUse" x1="104.72581" x2="104.72581" y1="17.456142" y2="104.72762"><stop offset="0" stop-color="#bfe7ff"/><stop offset="1" stop-color="#bff9ff" stop-opacity="0"/></linearGradient><filter id="h" color-interpolation-filters="sRGB" height="1.018454" width="1.034312" x="-.017156" y="-.009227"><feGaussianBlur stdDeviation=".11027288"/></filter><linearGradient id="i" gradientUnits="userSpaceOnUse" x1="27.708702" x2="30.787445" y1="297" y2="280.06689"><stop offset="0" stop-color="#80f9ff"/><stop offset="1" stop-color="#80fff9" stop-opacity="0"/></linearGradient><g transform="matrix(.171875 0 0 .171875 .264587 .264581)"><path d="m11.599999 11.8.000089 118.71995 118.739972-.02-.00009-118.719951z" filter="url(#a)" opacity=".553903" transform="matrix(.2699708 0 0 .2699708 -2.121455 -1.91039)"/><path d="m1.5501472 1.54524-.010775 30.78205 30.5704718-.005.227788-.22779-.01081-30.55426z" fill="#fff" stroke-width=".269971"/><rect fill="url(#b)" height="27.7087" rx=".17989" ry=".190964" width="27.7087" x="3.078745" y="3.079235"/><g fill="#404040" fill-opacity=".839216" transform="matrix(-1 0 0 1 0 -263.13332)"><path d="m-21.55121 269.29129h15.393722v1.53937h-15.393722z"/><path d="m-18.472467 273.90942h12.314979v1.53935h-12.314979z"/><path d="m-21.55121 278.52753h15.393722v1.53936h-15.393722z"/></g></g><g transform="matrix(.171875 0 0 .171875 .265589 -45.098958)"><g fill="none" stroke-width="1.6"><path d="m26.195956 268.31739 7.708624 8.77942-6.169289-1.40089-.02659 21.30407h-3.085693l-.000707-.56691h.000707l.02659-20.73858-6.171568 1.39516z" stroke="url(#f)"/><path d="m26.195956 268.31739 7.708624 8.77942-6.169289-1.40089-.02659 21.30407h-3.085693l-.000707-.56691h.000707l.02659-20.73858-6.171568 1.39516z" stroke="url(#d)"/><path d="m26.195956 268.31739 7.708624 8.77942-6.169289-1.40089-.02659 21.30407h-3.085693l-.000707-.56691h.000707l.02659-20.73858-6.171568 1.39516z" stroke="url(#e)" stroke-linecap="round" stroke-linejoin="round"/></g><path d="m26.195956 268.31739 7.708624 8.77942-6.169289-1.40089-.02659 21.30407h-3.085693l-.000707-.56691h.000707l.02659-20.73858-6.171568 1.39516z" fill="url(#c)" fill-rule="evenodd"/><path d="m99.007812 19.59375-29.169921 33.154297 23.326171-5.273438-.02734 20.582032c3.934611-.145988 7.839708-.520611 11.666008-1.119141l.0234-19.457031 23.31641 5.294922z" fill="url(#g)" transform="matrix(.26458333 0 0 .26458333 0 263.13332)"/><g fill="none"><path d="m26.195956 268.31739 7.708624 8.77942-1.534042 1.45299-4.635247-2.85388-.02659 21.30407h-3.085693l-.000707-.56691h.000707l.02659-20.73858-4.561463 2.84959-1.610105-1.45443z" filter="url(#h)"/><path d="m26.195956 268.31739 7.708624 8.77942-6.169289-1.40089-.02659 21.30407h-3.085693l-.000707-.56691h.000707l.02659-20.73858-6.171568 1.39516z" filter="url(#h)" stroke="url(#i)" stroke-width=".3"/></g></g></svg>

<?xml version="1.0" encoding="UTF-8" standalone="no"?>
<svg
   xmlns:dc="http://purl.org/dc/elements/1.1/"
   xmlns:cc="http://creativecommons.org/ns#"
   xmlns:rdf="http://www.w3.org/1999/02/22-rdf-syntax-ns#"
   xmlns:svg="http://www.w3.org/2000/svg"
   xmlns="http://www.w3.org/2000/svg"
   xmlns:xlink="http://www.w3.org/1999/xlink"
   xmlns:sodipodi="http://sodipodi.sourceforge.net/DTD/sodipodi-0.dtd"
   xmlns:inkscape="http://www.inkscape.org/namespaces/inkscape"
   height="128"
   viewBox="0 0 33.866666 33.866668"
   width="128"
   version="1.1"
   id="svg138"
   sodipodi:docname="lc_aligntop.svg"
   inkscape:version="0.92.3 (unknown)">
  <metadata
     id="metadata144">
    <rdf:RDF>
      <cc:Work
         rdf:about="">
        <dc:format>image/svg+xml</dc:format>
        <dc:type
           rdf:resource="http://purl.org/dc/dcmitype/StillImage" />
        <dc:title></dc:title>
      </cc:Work>
    </rdf:RDF>
  </metadata>
  <defs
     id="defs142" />
  <sodipodi:namedview
     pagecolor="#ffffff"
     bordercolor="#666666"
     borderopacity="1"
     objecttolerance="10"
     gridtolerance="10"
     guidetolerance="10"
     inkscape:pageopacity="0"
     inkscape:pageshadow="2"
     inkscape:window-width="1366"
     inkscape:window-height="706"
     id="namedview140"
     showgrid="true"
     inkscape:zoom="5.2149125"
     inkscape:cx="118.70128"
     inkscape:cy="102.65472"
     inkscape:window-x="0"
     inkscape:window-y="0"
     inkscape:window-maximized="1"
     inkscape:current-layer="svg138">
    <inkscape:grid
       type="xygrid"
       id="grid978"
       spacingx="1.5393723"
       spacingy="1.5393723"
       empspacing="1" />
  </sodipodi:namedview>
  <filter
     id="a">
    <feGaussianBlur
       stdDeviation="2.0786429"
       id="feGaussianBlur2" />
  </filter>
  <radialGradient
     id="b"
     cx="27.708702"
     cy="301.6181"
     gradientTransform="matrix(3.5555559,1.8e-7,-1.5e-7,3.0000008,-70.811094,-866.36975)"
     gradientUnits="userSpaceOnUse"
     r="13.85435">
    <stop
       offset="0"
       stop-color="#b7b8b9"
       id="stop5" />
    <stop
       offset=".18851049"
       stop-color="#ececec"
       id="stop7" />
    <stop
       offset=".25718147"
       stop-color="#fafafa"
       id="stop9" />
    <stop
       offset=".30111277"
       stop-color="#fff"
       id="stop11" />
    <stop
       offset=".5313"
       stop-color="#fafafa"
       id="stop13" />
    <stop
       offset=".8449"
       stop-color="#ebecec"
       id="stop15" />
    <stop
       offset="1"
       stop-color="#e1e2e3"
       id="stop17" />
  </radialGradient>
  <filter
     id="c"
     color-interpolation-filters="sRGB"
     height="1.057123"
     width="1.14278"
     x="-.07139"
     y="-.028562">
    <feGaussianBlur
       stdDeviation="1.1900674"
       id="feGaussianBlur20" />
  </filter>
  <radialGradient
     id="d"
     cx="108"
     cy="60.19125"
     gradientTransform="matrix(0.26458333,0,0,0.58210134,27.322927,-25.99345)"
     gradientUnits="userSpaceOnUse"
     r="24.764534"
     xlink:href="#e" />
  <linearGradient
     id="e">
    <stop
       offset="0"
       stop-color="#fff"
       id="stop24" />
    <stop
       offset="1"
       stop-color="#fff"
       stop-opacity="0"
       id="stop26" />
  </linearGradient>
  <radialGradient
     id="f"
     cx="108"
     cy="88.402061"
     gradientTransform="matrix(1.0594438,0.00180378,-0.00257609,1.5130532,-58.966828,-107.4935)"
     gradientUnits="userSpaceOnUse"
     r="20.003965">
    <stop
       offset="0"
       stop-color="#1552f5"
       id="stop29" />
    <stop
       offset="1"
       stop-color="#071127"
       id="stop31" />
  </radialGradient>
  <radialGradient
     id="g"
     cx="104"
     cy="82.008759"
     gradientTransform="matrix(0.26458333,0,0,0.58210134,26.650369,-25.51241)"
     gradientUnits="userSpaceOnUse"
     r="24.764534"
     xlink:href="#h" />
  <linearGradient
     id="h">
    <stop
       offset="0"
       stop-color="#001331"
       id="stop35" />
    <stop
       offset="1"
       stop-color="#293e63"
       id="stop37" />
  </linearGradient>
  <radialGradient
     id="i"
     cx="104"
     cy="82.008759"
     gradientTransform="matrix(0.26458333,0,0,0.58210134,26.650369,-25.51241)"
     gradientUnits="userSpaceOnUse"
     r="24.764534"
     xlink:href="#j" />
  <linearGradient
     id="j">
    <stop
       offset="0"
       stop-color="#000914"
       id="stop41" />
    <stop
       offset="1"
       stop-color="#000b14"
       stop-opacity="0"
       id="stop43" />
  </linearGradient>
  <linearGradient
     id="k"
     gradientUnits="userSpaceOnUse"
     x1="112"
     x2="100"
     xlink:href="#l"
     y1="128"
     y2="56" />
  <linearGradient
     id="l">
    <stop
       offset="0"
       stop-color="#80f9ff"
       id="stop47" />
    <stop
       offset="1"
       stop-color="#80fff9"
       stop-opacity="0"
       id="stop49" />
  </linearGradient>
  <filter
     id="m"
     color-interpolation-filters="sRGB"
     height="1.016801"
     width="1.041994"
     x="-.020997"
     y="-.0084">
    <feGaussianBlur
       stdDeviation=".35001982"
       id="feGaussianBlur52" />
  </filter>
  <radialGradient
     id="n"
     cx="99.765625"
     cy="29.374895"
     gradientTransform="matrix(1.9646726,3.4e-7,-1.04e-6,5.9752716,-167.24116,-126.14811)"
     gradientUnits="userSpaceOnUse"
     r="3.015625"
     xlink:href="#e" />
  <filter
     id="o"
     height="1.205783"
     width="1.364658"
     x="-.182329"
     y="-.102891">
    <feGaussianBlur
       stdDeviation=".45819706"
       id="feGaussianBlur56" />
  </filter>
  <radialGradient
     id="p"
     cx="108"
     cy="88.402061"
     gradientTransform="matrix(1.0594438,0.00180378,-0.00257609,1.5130532,-58.966828,-107.4935)"
     gradientUnits="userSpaceOnUse"
     r="20.003965"
     xlink:href="#q" />
  <linearGradient
     id="q">
    <stop
       offset="0"
       stop-color="#9abcee"
       id="stop60" />
    <stop
       offset="1"
       stop-color="#092042"
       id="stop62" />
  </linearGradient>
  <linearGradient
     id="r"
     gradientTransform="matrix(0.24340181,0,0,0.24356841,39.484539,-2.73582)"
     gradientUnits="userSpaceOnUse"
     x1="83.324677"
     x2="83.324677"
     xlink:href="#s"
     y1="24.0625"
     y2="89.99453" />
  <linearGradient
     id="s">
    <stop
       offset="0"
       stop-color="#bfe7ff"
       id="stop66" />
    <stop
       offset="1"
       stop-color="#bff9ff"
       stop-opacity="0"
       id="stop68" />
  </linearGradient>
  <radialGradient
     id="t"
     cx="26.169329"
     cy="287.06024"
     gradientTransform="matrix(1.5965953,-9.7e-7,1.81e-6,2.9936209,-15.61302,-568.507)"
     gradientUnits="userSpaceOnUse"
     r="7.713275"
     xlink:href="#q" />
  <radialGradient
     id="u"
     cx="26.191305"
     cy="282.65869"
     gradientTransform="matrix(1,0,0,1.859301,0,-242.8889)"
     gradientUnits="userSpaceOnUse"
     r="7.713275"
     xlink:href="#j" />
  <radialGradient
     id="v"
     cx="26.191305"
     cy="282.65869"
     gradientTransform="matrix(1,0,0,1.859301,0,-242.8889)"
     gradientUnits="userSpaceOnUse"
     r="7.713275"
     xlink:href="#h" />
  <radialGradient
     id="w"
     cx="26.169329"
     cy="277.12506"
     gradientTransform="matrix(1,0,0,1.859301,0,-242.8889)"
     gradientUnits="userSpaceOnUse"
     r="7.713275"
     xlink:href="#e" />
  <linearGradient
     id="x"
     gradientUnits="userSpaceOnUse"
     x1="104.72580396918"
     x2="104.72580396918"
     xlink:href="#s"
     y1="17.45614159299"
     y2="104.727626003" />
  <linearGradient
     gradientUnits="userSpaceOnUse"
     x1="27.708702"
     x2="34.425343"
     xlink:href="#l"
     y1="298.53937"
     y2="282.56204"
     id="linearGradient76" />
  <filter
     id="y"
     color-interpolation-filters="sRGB"
     height="1.018454"
     width="1.034312"
     x="-.017156"
     y="-.009227">
    <feGaussianBlur
       stdDeviation=".11027288"
       id="feGaussianBlur78" />
  </filter>
  <linearGradient
     id="z"
     gradientUnits="userSpaceOnUse"
     x1="27.708702"
     x2="30.787445"
     xlink:href="#l"
     y1="297"
     y2="280.06689" />
  <path
     style="opacity:0.55390296;filter:url(#a)"
     inkscape:connector-curvature="0"
     id="path92"
     transform="matrix(0.2699708,0,0,0.2699708,-2.121455,-1.91039)"
     d="m 11.599999,11.8 8.9e-5,118.71995 118.739972,-0.02 -9e-5,-118.719951 z" />
  <path
     style="fill:#ffffff;stroke-width:0.26997101"
     inkscape:connector-curvature="0"
     id="path94"
     d="M 1.5501472,1.54524 1.5393722,32.32729 32.109844,32.32229 32.337632,32.0945 32.326822,1.54024 Z" />
  <rect
     style="fill:url(#b)"
     id="rect96"
     y="3.0792348"
     x="3.0787449"
     width="27.7087"
     ry="0.190964"
     rx="0.17989001"
     height="27.7087" />
  <g
     style="fill:#404040;fill-opacity:0.83921599"
     id="g104"
     transform="matrix(-1,0,0,1,0,-263.13332)">
    <path
       inkscape:connector-curvature="0"
       id="path98"
       d="m -21.55121,269.29129 h 15.393722 v 1.53937 H -21.55121 Z" />
    <path
       inkscape:connector-curvature="0"
       id="path100"
       d="m -18.472467,273.90942 h 12.314979 v 1.53935 h -12.314979 z" />
    <path
       inkscape:connector-curvature="0"
       id="path102"
       d="m -21.55121,278.52753 h 15.393722 v 1.53936 H -21.55121 Z" />
  </g>
  <g
     id="g134"
     transform="translate(0.005827,-263.93332)">
    <g
       style="fill:none"
       id="g124">
      <path
         inkscape:connector-curvature="0"
         style="stroke:url(#w);stroke-width:1.60000002"
         id="path118"
         d="m 26.195956,268.31739 7.708624,8.77942 -6.169289,-1.40089 -0.02659,21.30407 h -3.085693 l -7.07e-4,-0.56691 h 7.07e-4 l 0.02659,-20.73858 -6.171568,1.39516 z" />
      <path
         inkscape:connector-curvature="0"
         style="stroke:url(#u);stroke-width:1.60000002"
         id="path120"
         d="m 26.195956,268.31739 7.708624,8.77942 -6.169289,-1.40089 -0.02659,21.30407 h -3.085693 l -7.07e-4,-0.56691 h 7.07e-4 l 0.02659,-20.73858 -6.171568,1.39516 z" />
      <path
         inkscape:connector-curvature="0"
         style="stroke:url(#v);stroke-width:1.60000002;stroke-linecap:round;stroke-linejoin:round"
         id="path122"
         d="m 26.195956,268.31739 7.708624,8.77942 -6.169289,-1.40089 -0.02659,21.30407 h -3.085693 l -7.07e-4,-0.56691 h 7.07e-4 l 0.02659,-20.73858 -6.171568,1.39516 z" />
    </g>
    <path
       inkscape:connector-curvature="0"
       style="fill:url(#t);fill-rule:evenodd"
       id="path126"
       d="m 26.195956,268.31739 7.708624,8.77942 -6.169289,-1.40089 -0.02659,21.30407 h -3.085693 l -7.07e-4,-0.56691 h 7.07e-4 l 0.02659,-20.73858 -6.171568,1.39516 z" />
    <path
       inkscape:connector-curvature="0"
       style="fill:url(#x)"
       id="path128"
       transform="matrix(0.26458333,0,0,0.26458333,0,263.13332)"
       d="M 99.007812,19.59375 69.837891,52.748047 93.164062,47.474609 93.136722,68.056641 C 97.071333,67.910653 100.97643,67.53603 104.80273,66.9375 l 0.0234,-19.457031 23.31641,5.294922 z" />
    <path
       style="fill:none;filter:url(#y)"
       inkscape:connector-curvature="0"
       id="path130"
       d="m 26.195956,268.31739 7.708624,8.77942 -1.534042,1.45299 -4.635247,-2.85388 -0.02659,21.30407 h -3.085693 l -7.07e-4,-0.56691 h 7.07e-4 l 0.02659,-20.73858 -4.561463,2.84959 -1.610105,-1.45443 z" />
    <path
       inkscape:connector-curvature="0"
       style="fill:none;stroke:url(#z);stroke-width:0.30000001;filter:url(#y)"
       id="path132"
       d="m 26.195956,268.31739 7.708624,8.77942 -6.169289,-1.40089 -0.02659,21.30407 h -3.085693 l -7.07e-4,-0.56691 h 7.07e-4 l 0.02659,-20.73858 -6.171568,1.39516 z" />
  </g>
</svg>
